X:155
T:Jesus Loves Me
%%stretchlast false
M:4/4
L:1/4
K:C clef=C1
"^v"[Gg] "^iii¹"[Ge] [Ge] "^v"[Gd] | "^iii¹"[Ge] "^v"[Gg] [Gg]2 | "^IV"[Fa] [Fa] "^iv"[Fc'] "^IV"[Fa] | [Fa] "^v"[Gg] [Gg]2 | [Gg] "^iii¹"[Ge] [Ge] "^v"[Gd] | "^iii¹"[Ge] "^v"[Gg] [Gg]2 | "^IV"[Fa] [Fa] "^iii"[Eg] "^I¹"[Ec] | "^iii¹"[Ge] "^ii¹"[Fd] "^I¹"[Ec]2 | "^iii"[Eg]2 "^iii¹"[Ge] "^i"[cg] | "^vi¹"[ca] "^i"[cc']3 | [cg]2 "^iii¹"[Ge] "^i"[Gc] | "^iii¹"[Ge] "^v"[Gd]3 | [Gg]2 "^iii¹"[Ge] "^i"[cg] | "^vi¹"[ca] "^i"[cc']2 "^vi¹"[ca] | "^i"[cg] [Gc] "^iii¹"[Ge]3/2 "^ii¹"[Fd]/ | "^I¹"[Ec]4 |]
